!!!COM: Palestrina, Giovanni Perluigi da
!!!OPR: De beata virgine (1570)
!!!OTL: Sanctus
**kern	**kern	**kern	**kern	**kern	**kern
*Ibass	*Itenor	*Itenor	*Icalto	*Icant	*Icant
!Bassus	!Tenor 2	!Tenor 1	!Altus	!Cantus 2	!Cantus 1
*clefF4	*clefGv2	*clefGv2	*clefG2	*clefG2	*clefG2
*k[b-]	*k[b-]	*k[b-]	*k[b-]	*k[b-]	*k[b-]
*?:X	*?:X	*?:X	*?:X	*?:X	*?:X
*M4/2	*M4/2	*M4/2	*M4/2	*M4/2	*M4/2
=1	=1	=1	=1	=1	=1
0r	0r	0r	0g	0r	0r
=2	=2	=2	=2	=2	=2
0r	0r	0c	0e	0r	0r
=3	=3	=3	=3	=3	=3
0r	0r	0A	2.c	0cc	0r
.	.	.	4d	.	.
.	.	.	2e	.	.
.	.	.	2c	.	.
=4	=4	=4	=4	=4	=4
0r	0r	2.F	2.f	0a	[0cc
.	.	4G	8e	.	.
.	.	.	8d	.	.
.	.	2A	2c	.	.
.	.	2F	[2f	.	.
=5	=5	=5	=5	=5	=5
0C	0r	1c	2f]	0g	0cc]
.	.	.	4e	.	.
.	.	.	4d	.	.
.	.	2r	1e	.	.
.	.	[2c	.	.	.
=6	=6	=6	=6	=6	=6
0F	[0c	4c]	0f	2.f	0a
.	.	4B-	.	.	.
.	.	4A	.	.	.
.	.	4G	.	4g	.
.	.	2F	.	2.a	.
.	.	[2f	.	.	.
.	.	.	.	4b-	.
=7	=7	=7	=7	=7	=7
0C	0c]	2f]	1r	[0cc	0g
.	.	4e	.	.	.
.	.	4d	.	.	.
.	.	1e	1g	.	.
=8	=8	=8	=8	=8	=8
2.F	0A	2.f	2.a	0cc]	1f
4G	.	8e	8g	.	.
.	.	8d	8f	.	.
4A	.	1c	2e	.	1r
4B-	.	.	.	.	.
[2c	.	.	2f#	.	.
=9	=9	=9	=9	=9	=9
2c]	0G	1.d	1g	0r	1r
4B-	.	.	.	.	.
4A	.	.	.	.	.
1B-	.	.	1r	.	1g
.	.	2e	.	.	.
=10	=10	=10	=10	=10	=10
4c	0F	[0f	2r	1r	2.a
4B-	.	.	.	.	.
4A	.	.	2f	.	.
4G	.	.	.	.	4b-
2F	.	.	2a	2r	2cc
2BB-	.	.	2b-	2f	2dd
=11	=11	=11	=11	=11	=11
0F	1r	0f]	2.cc	2.a	4cc
.	.	.	.	.	4b-
.	.	.	.	.	4a
.	.	.	4b-	4b-	4g
.	1F	.	4a	2cc	2f
.	.	.	4g	.	.
.	.	.	[2f	2dd	[2a
=12	=12	=12	=12	=12	=12
0r	0A	1r	2f]	2.cc	4a]
.	.	.	.	.	4g
.	.	.	4e	.	4a
.	.	.	4d	4b-	4b-
.	.	2r	1e	4a	1cc
.	.	.	.	4g	.
.	.	2c	.	2a	.
=13	=13	=13	=13	=13	=13
0r	[0c	2.e	2r	1g	1cc
.	.	.	2c	.	.
.	.	4f	.	.	.
.	.	2g	2.e	[1cc	1r
.	.	2a	.	.	.
.	.	.	4f	.	.
=14	=14	=14	=14	=14	=14
0r	0c]	2e	2g	1cc]	1r
.	.	1f	2a	.	.
.	.	.	1g	1cc	2r
.	.	2e	.	.	2cc
=15	=15	=15	=15	=15	=15
2r	0d	1f	0f	2r	2a
2BB-	.	.	.	2b-	2.dd
2.D	.	2r	.	2a	.
.	.	.	.	.	4cc
.	.	2F	.	[2f	2b-
4E	.	.	.	.	.
=16	=16	=16	=16	=16	=16
1F	[0c	2.A	2r	4f]	2a
.	.	.	.	4g	.
.	.	.	2c	2a	2ff
.	.	4B-	.	.	.
2C	.	2c	2e	2g	4ee
.	.	.	.	.	4dd
2F	.	4A	2f	[2a	4cc
.	.	4B-	.	.	4b-
=17	=17	=17	=17	=17	=17
2.A	0c]	4c	2e	4a]	4a
.	.	4d	.	4b-	4g
.	.	2.e	2c	2.cc	2a
4B-	.	.	.	.	.
2c	.	.	2.e	.	1g
.	.	4f	.	4dd	.
2C	.	[2g	.	[2ee	.
.	.	.	4f	.	.
=18	=18	=18	=18	=18	=18
2.E	0r	4g]	1g	4ee]	2r
.	.	4f	.	4dd	.
.	.	2e	.	1cc	2.gg
4F	.	.	.	.	.
1G	.	1d	2r	.	.
.	.	.	.	.	4ff
.	.	.	[2g	2b	2dd
=19	=19	=19	=19	=19	=19
2C	0c	2c	4g]	0cc	2ee
.	.	.	4e	.	.
1F	.	4A	2a	.	2.cc
.	.	4B-	.	.	.
.	.	4c	2f	.	.
.	.	4d	.	.	4b-
2E	.	2e	[2g	.	2g
=20	=20	=20	=20	=20	=20
1F	1A	[0c	4g]	2r	2.a
.	.	.	4f	.	.
.	.	.	1f	2.cc	.
.	.	.	.	.	4b-
1C	1G	.	.	.	1cc
.	.	.	.	4b-	.
.	.	.	2e	2g	.
=21	=21	=21	=21	=21	=21
1F	[0F	0c]	[0f	2.a	2r
.	.	.	.	.	1a
.	.	.	.	4b-	.
2r	.	.	.	1cc	.
[2A	.	.	.	.	2f
=22	=22	=22	=22	=22	=22
2A]	1F]	0r	0f]	2r	2.a
2F	.	.	.	1a	.
.	.	.	.	.	4b-
2A	1r	.	.	.	2cc
2B-	.	.	.	2f	2dd
=23	=23	=23	=23	=23	=23
1F	0r	0r	2r	2.a	2.cc
.	.	.	1a	.	.
.	.	.	.	4b-	4dd
1r	.	.	.	2cc	2ee
.	.	.	2f	[2dd	[2ff
=24	=24	=24	=24	=24	=24
0r	0r	0r	1a	4dd]	4ff]
.	.	.	.	4cc	4ee
.	.	.	.	1cc	2cc
.	.	.	1g	.	1dd
.	.	.	.	2b	.
=25	=25	=25	=25	=25	=25
0r	0r	2r	1c	2.cc	2cc
.	.	1A	.	.	2.a
.	.	.	.	4dd	.
.	.	.	2.cc	2ee	.
.	.	.	.	.	4g
.	.	2F	.	[2ff	4a
.	.	.	4b-	.	4b-
=26	=26	=26	=26	=26	=26
0r	0r	2.A	4a	2ff]	2.cc
.	.	.	4g	.	.
.	.	.	1a	1ee	.
.	.	4B-	.	.	4dd
.	.	2c	.	.	2ee
.	.	2d	2a	[2dd	2ff
=27	=27	=27	=27	=27	=27
1r	0A	1e	0a	2dd]	2ee
.	.	.	.	2cc#	1a
[1D	.	2.f	.	2dd	.
.	.	.	.	[2ff	2f
.	.	4e	.	.	.
=28	=28	=28	=28	=28	=28
2D]	0F	1.d	0r	2ff]	2a
2BB-	.	.	.	2dd	1b-
2.D	.	.	.	2ff	.
.	.	2d	.	[2ff	[2a
4E	.	.	.	.	.
=29	=29	=29	=29	=29	=29
4F	0A	1c	2r	2ff]	2a]
4G	.	.	.	.	.
4A	.	.	1e	4ee	1cc
4B-	.	.	.	4dd	.
1c	.	2r	.	1ee	.
.	.	[2e	2c	.	2a
=30	=30	=30	=30	=30	=30
1.C	[0c	2e]	2.e	1ee	1g
.	.	2c	.	.	.
.	.	.	4f	.	.
.	.	2e	2g	[1cc	1r
2F	.	2f	2a	.	.
=31	=31	=31	=31	=31	=31
2E	0c]	2g	2g	1cc]	0r
2F	.	2a	1f	.	.
1C	.	1g	.	1ee	.
.	.	.	2e	.	.
=32	=32	=32	=32	=32	=32
1r	[0d	1f	0f	0a	2r
.	.	.	.	.	1a
[1D	.	2r	.	.	.
.	.	[2f	.	.	2f
=33	=33	=33	=33	=33	=33
2D]	0d]	2f]	2r	1r	2a
2BB-	.	2d	2.f	.	2b-
1D	.	2.f	.	2r	2a
.	.	.	4e	.	.
.	.	.	2d	[2a	[2f
.	.	4g	.	.	.
=34	=34	=34	=34	=34	=34
0F	[0c	1a	2A	2a]	4f]
.	.	.	.	.	4g
.	.	.	2.a	2f	4a
.	.	.	.	.	4b-
.	.	1f	.	1a	2.cc
.	.	.	4g	.	.
.	.	.	2f	.	.
.	.	.	.	.	4dd
=35	=35	=35	=35	=35	=35
1C	1c]	0g	1e	2.cc	4ee
.	.	.	.	.	4ff
.	.	.	.	.	2gg
.	.	.	.	4dd	.
2.c	1r	.	2r	4ee	2.cc
.	.	.	.	4ff	.
.	.	.	[2e	2gg	.
4B-	.	.	.	.	4dd
=36	=36	=36	=36	=36	=36
1.A	0c	0r	2e]	2cc	1ee
.	.	.	2c	2.ee	.
.	.	.	2e	.	1a
.	.	.	.	4dd	.
2A	.	.	2f	[2cc	.
=37	=37	=37	=37	=37	=37
1G	0d	2r	0g	2cc]	2r
.	.	2d	.	4b-	1dd
.	.	.	.	4a	.
2r	.	2G	.	2b	.
2G	.	[2g	.	2b	2g
=38	=38	=38	=38	=38	=38
2C	0e	4g]	1g	1cc	2.gg
.	.	4f	.	.	.
2.c	.	4e	.	.	.
.	.	4d	.	.	4ff
.	.	[1c	2r	2r	4ee
4B-	.	.	.	.	4dd
4A	.	.	[2cc	[2a	4cc
4G	.	.	.	.	4b-
=39	=39	=39	=39	=39	=39
2.F	0f	1c]	4cc]	2a]	2a
.	.	.	4b-	.	.
.	.	.	2a	2f	2cc
4E	.	.	.	.	.
1D	.	2r	2f	2a	1dd
.	.	2F	2d	2b-	.
=40	=40	=40	=40	=40	=40
1C	0e	2G	2g	2.cc	1ee
.	.	2G	2e	.	.
.	.	.	.	4dd	.
1AA	.	2.c	1a	1ee	2r
.	.	.	.	.	[2a
.	.	4B-	.	.	.
=41	=41	=41	=41	=41	=41
1.D	0d	4A	2f	1ff	2a]
.	.	4G	.	.	.
.	.	2A	2.d	.	2f
.	.	2F	.	2.dd	2a
.	.	.	4e	.	.
2BB-	.	2B-	4f	.	2b-
.	.	.	4g	4ee	.
=42	=42	=42	=42	=42	=42
1F	0c	1A	2a	1ff	2cc
.	.	.	2f	.	4a
.	.	.	.	.	4b-
1C	.	1G	[1g	1ee	4cc
.	.	.	.	.	4dd
.	.	.	.	.	[2cc
=43	=43	=43	=43	=43	=43
0G	0d	2r	1g]	1dd	2cc]
.	.	2.g	.	.	4b-
.	.	.	.	.	4a
.	.	.	2r	2r	2b
.	.	4f	.	.	.
.	.	2d	[2g	[2gg	2b
=44	=44	=44	=44	=44	=44
1C	[0c	4e	2g]	4gg]	[0cc
.	.	4d	.	4ff	.
.	.	4c	2g	4ee	.
.	.	4B-	.	4dd	.
[1F	.	4A	[1a	4cc	.
.	.	4G	.	4b-	.
.	.	2F	.	4a	.
.	.	.	.	4g	.
=45	=45	=45	=45	=45	=45
2F]	0c]	2.c	2a]	2f	0cc]
2E	.	.	1g	2g	.
.	.	4B-	.	.	.
1F	.	2A	.	1a	.
.	.	2F	[2f	.	.
=46	=46	=46	=46	=46	=46
0C	[0c	0G	2f]	0g	[0cc
.	.	.	4e	.	.
.	.	.	4d	.	.
.	.	.	1e	.	.
=47	=47	=47	=47	=47	=47
0F	0c]	0F	0f	0a	0cc]
!! Hosanna
*Ibass	*Itenor	*Itenor	*Icalto	*Icant	*Icant
!Bassus	!Tenor 2	!Tenor 1	!Altus	!Cantus 2	!Cantus 1
*clefF4	*clefGv2	*clefGv2	*clefG2	*clefG2	*clefG2
*k[b-]	*k[b-]	*k[b-]	*k[b-]	*k[b-]	*k[b-]
*?:X	*?:X	*?:X	*?:X	*?:X	*?:X
*M4/2	*M4/2	*M4/2	*M4/2	*M4/2	*M4/2
=48	=48	=48	=48	=48	=48
0c	0r	0r	0e	0g	0r
=49	=49	=49	=49	=49	=49
0A	0c	0r	1.e	1a	0r
.	.	.	.	[1cc	.
.	.	.	2f	.	.
=50	=50	=50	=50	=50	=50
0G	0d	0r	1g	2cc]	0r
.	.	.	.	4b-	.
.	.	.	.	4a	.
.	.	.	[1g	1b	.
=51	=51	=51	=51	=51	=51
0C	0e	0c	1g]	[0cc	0g
.	.	.	1e	.	.
=52	=52	=52	=52	=52	=52
0F	[0f	0A	2c	0cc]	1a
.	.	.	2.cc	.	.
.	.	.	.	.	[1cc
.	.	.	4b-	.	.
.	.	.	4a	.	.
.	.	.	4g	.	.
=53	=53	=53	=53	=53	=53
0D	0f]	0F	4a	0dd	2cc]
.	.	.	4g	.	.
.	.	.	4f	.	4b-
.	.	.	4e	.	4a
.	.	.	1d	.	1b
=54	=54	=54	=54	=54	=54
0C	0e	1G	1.g	2ee	1cc
.	.	.	.	4gg	.
.	.	.	.	4ff	.
.	.	1g	.	4ee	1cc
.	.	.	.	4dd	.
.	.	.	2e	[2cc	.
=55	=55	=55	=55	=55	=55
0r	0d	1a	1f	2cc]	1dd
.	.	.	.	4b-	.
.	.	.	.	4a	.
.	.	1f	1d	1b	[1ff
=56	=56	=56	=56	=56	=56
0C	0c	2.g	2r	1cc	2ff]
.	.	.	1g	.	4ee
.	.	4f	.	.	4dd
.	.	4e	.	1r	2ee
.	.	4d	.	.	.
.	.	2e	2g	.	[2cc
=57	=57	=57	=57	=57	=57
0G	0d	2d	1g	2r	2cc]
.	.	1G	.	2.gg	4b-
.	.	.	.	.	4a
.	.	.	1g	.	1b
.	.	.	.	4ff	.
.	.	[2g	.	2dd	.
=58	=58	=58	=58	=58	=58
1C	0c	4g]	2r	2ee	1cc
.	.	4f	.	.	.
.	.	4e	2.cc	4cc	.
.	.	4d	.	4dd	.
1C	.	2c	.	4ee	1r
.	.	.	4b-	4ff	.
.	.	2e	2g	2gg	.
=59	=59	=59	=59	=59	=59
1F	0A	0f	2a	2.ff	2r
.	.	.	4f	.	2.ff
.	.	.	4g	8ee	.
.	.	.	.	8dd	.
1F	.	.	4a	2cc	.
.	.	.	4b-	.	4ee
.	.	.	2cc	2a	2cc
=60	=60	=60	=60	=60	=60
1BB-	0B-	1d	1.dd	2.ff	2dd
.	.	.	.	.	4b-
.	.	.	.	4ee	4cc
1r	.	1r	.	1dd	4dd
.	.	.	.	.	4ee
.	.	.	2a	.	[2ff
=61	=61	=61	=61	=61	=61
2r	0c	1r	1g	0cc	2ff]
2C	.	.	.	.	4ee
.	.	.	.	.	4dd
4C	.	2r	[1g	.	1ee
4D	.	.	.	.	.
4E	.	2G	.	.	.
4F	.	.	.	.	.
=62	=62	=62	=62	=62	=62
4G	0B-	4G	1g]	0r	1.dd
4F	.	4A	.	.	.
4G	.	4B-	.	.	.
4A	.	4c	.	.	.
2B-	.	4d	2r	.	.
.	.	4c	.	.	.
2BB-	.	4d	2d	.	2dd
.	.	4e	.	.	.
=63	=63	=63	=63	=63	=63
2.D	0A	0f	4d	2r	1dd
.	.	.	4e	.	.
.	.	.	4f	2a	.
4E	.	.	4g	.	.
1F	.	.	4a	4a	1cc
.	.	.	4g	4b-	.
.	.	.	4a	4cc	.
.	.	.	4b-	4dd	.
=64	=64	=64	=64	=64	=64
1C	0G	1e	1cc	4ee	2r
.	.	.	.	4dd	.
.	.	.	.	4ee	2g
.	.	.	.	4ff	.
2r	.	2r	1b-	1gg	4g
.	.	.	.	.	4a
2G	.	2d	.	.	4b-
.	.	.	.	.	4cc
=65	=65	=65	=65	=65	=65
2D	0A	4d	2.a	2.ff	4dd
.	.	4e	.	.	4cc
2D	.	4f	.	.	4dd
.	.	4g	4g	4ee	4ee
2D	.	2a	2f	2dd	1ff
2F	.	2f	4c	[2cc	.
.	.	.	4d	.	.
=66	=66	=66	=66	=66	=66
1C	0G	2g	4e	2cc]	1ee
.	.	.	4f	.	.
.	.	2e	4g	2g	.
.	.	.	4a	.	.
1G	.	1g	1b-	4g	1dd
.	.	.	.	4a	.
.	.	.	.	4b-	.
.	.	.	.	4cc	.
=67	=67	=67	=67	=67	=67
1.D	0A	2f	1a	4dd	2.ff
.	.	.	.	4cc	.
.	.	4F	.	4dd	.
.	.	4G	.	4ee	4ee
.	.	4A	2a	2ff	2dd
.	.	4B-	.	.	.
2AA	.	2c	2a	2ee	2cc
=68	=68	=68	=68	=68	=68
4BB-	0F	1d	4d	1dd	2b-
4C	.	.	4e	.	.
4D	.	.	4f	.	2.a
4E	.	.	4g	.	.
1F	.	2.A	2a	1cc	.
.	.	.	.	.	4f
.	.	.	[2f	.	2a
.	.	4B-	.	.	.
=69	=69	=69	=69	=69	=69
0C	0G	1c	2f]	0cc	0g
.	.	.	4e	.	.
.	.	.	4d	.	.
.	.	1c	1e	.	.
=70	=70	=70	=70	=70	=70
0F	[0F	2r	[0f	1cc	2.a
.	.	2A	.	.	.
.	.	.	.	.	4b-
.	.	4A	.	2r	1cc
.	.	4G	.	.	.
.	.	4A	.	2ff	.
.	.	4B-	.	.	.
=71	=71	=71	=71	=71	=71
2r	1F]	4c	0f]	4ff	1r
.	.	4A	.	4ee	.
2BB-	.	4B-	.	4dd	.
.	.	4c	.	4cc	.
4BB-	1r	1d	.	2b-	2r
4C	.	.	.	.	.
4D	.	.	.	4a	2f
4E	.	.	.	4g	.
=72	=72	=72	=72	=72	=72
4F	0c	2A	0r	1a	4f
4E	.	.	.	.	4g
4F	.	1f	.	.	4a
4G	.	.	.	.	4b-
2.A	.	.	.	1a	4cc
.	.	.	.	.	4b
.	.	2e	.	.	4cc
4B	.	.	.	.	4dd
=73	=73	=73	=73	=73	=73
2.c	0A	1e	2r	2.a	1.ee
.	.	.	2.c	.	.
4B-	.	.	.	4b-	.
1A	.	1c	.	1cc	.
.	.	.	4d	.	.
.	.	.	4e	.	2a
.	.	.	4f	.	.
=74	=74	=74	=74	=74	=74
0G	0B-	0d	4g	1b-	2dd
.	.	.	4f	.	.
.	.	.	4g	.	2b-
.	.	.	4a	.	.
.	.	.	1b-	1g	2.dd
.	.	.	.	.	4ee
=75	=75	=75	=75	=75	=75
2F	0c	1r	2a	0cc	2ff
2C	.	.	4g	.	4ee
.	.	.	4f	.	4dd
4C	.	2r	[1g	.	1ee
4D	.	.	.	.	.
4E	.	2G	.	.	.
4F	.	.	.	.	.
=76	=76	=76	=76	=76	=76
4G	0B-	4G	1g]	0r	[0dd
4F	.	4A	.	.	.
4G	.	4B-	.	.	.
4A	.	4c	.	.	.
2B-	.	4d	2r	.	.
.	.	4c	.	.	.
2BB-	.	4d	2d	.	.
.	.	4e	.	.	.
=77	=77	=77	=77	=77	=77
2.D	0A	0f	4d	2r	1dd]
.	.	.	4e	.	.
.	.	.	4f	2a	.
4E	.	.	4g	.	.
1F	.	.	4a	4a	1cc
.	.	.	4g	4b-	.
.	.	.	4a	4cc	.
.	.	.	4b-	4dd	.
=78	=78	=78	=78	=78	=78
1C	0G	1e	1cc	4ee	2r
.	.	.	.	4dd	.
.	.	.	.	4ee	2g
.	.	.	.	4ff	.
2r	.	2r	1b-	1gg	4g
.	.	.	.	.	4a
2G	.	2d	.	.	4b-
.	.	.	.	.	4cc
=79	=79	=79	=79	=79	=79
2D	0A	4d	2.a	2.ff	4dd
.	.	4e	.	.	4cc
2D	.	4f	.	.	4dd
.	.	4g	4g	4ee	4ee
2D	.	2a	2f	2dd	1ff
2F	.	2f	4c	[2cc	.
.	.	.	4d	.	.
=80	=80	=80	=80	=80	=80
1C	0G	2g	4e	2cc]	1ee
.	.	.	4f	.	.
.	.	2e	4g	2g	.
.	.	.	4a	.	.
1G	.	1g	1b-	4g	1dd
.	.	.	.	4a	.
.	.	.	.	4b-	.
.	.	.	.	4cc	.
=81	=81	=81	=81	=81	=81
1.D	0A	2f	1.a	4dd	2.ff
.	.	.	.	4cc	.
.	.	4F	.	4dd	.
.	.	4G	.	4ee	4ee
.	.	4A	.	2ff	2dd
.	.	4B-	.	.	.
2AA	.	2c	2a	2ee	2cc
=82	=82	=82	=82	=82	=82
4BB-	0F	1d	4d	1dd	2b-
4C	.	.	4e	.	.
4D	.	.	4f	.	2.a
4E	.	.	4g	.	.
1F	.	2.A	2a	1cc	.
.	.	.	.	.	4f
.	.	.	[2f	.	2a
.	.	4B-	.	.	.
=83	=83	=83	=83	=83	=83
0C	0G	0c	2f]	0cc	0g
.	.	.	4e	.	.
.	.	.	4d	.	.
.	.	.	1e	.	.
=84	=84	=84	=84	=84	=84
0F	0F	0c	0f	0cc	0a
==	==	==	==	==	==
*-	*-	*-	*-	*-	*-
!!!CDT: 1525/^1526/-1594/2/2
!!!OCY: Italia
!!!AGN: Mass (Paraphrase)
!!!AST: renaissance, vocal
!!!ASW: Gregorian Mass
!!!PWK: Masses, Book 3
!!!RNB: Cadence finals: G,D,C,E,F
!!!YOR: Le Opere Complete, v. 6, p. 175
!!!YOO: Rome, Italy: Fratelli Scalera
!!!END: 1992//
!!!EED: John Miller
!!!YEC: Copyright 2000, John Miller
!!!YEN: United States of America
!!!YEM: Rights to all derivative electronic formats reserved.
!!!YEM: Refer to licensing agreement for further details.
!!!YEM: This file must be accompanied by the licensing agreement.
!!!YEM: A copy of the licensing agreement may be found at http://www.music-cog.ohio-state.edu/HumdrumDatabases/Palestrina/license.txt
!!!EMD: converted to Humdrum by Bret Aarden
